X: 1
T: The White Cockade
T: 8x32R 3C (RSCDS Bk 5, 1797)
T: 123 SCR, SCR; 1C DMU; cast, circle, R&L
P: The White Cockade
C: Arr. T. Traub 1-22-1998
R: Reel
M: 4/4
L: 1/4
K: G
|: G/A/|"G"B B B AG|B B B g/e/|d B c/B/ A/G/|"A7"B A "D"A G/A/|"G"B B/d/ c/B/A/G/|
"G"G d "Em"g > a|"G"b/a/g/f/ "D"a/g/f/e/ |"G"d B B :||: B/c/ |"G"d B g B |d d d > e|
"G"d B g f/g/|"A"a A "D"A G/A/|"G"B B/d/ c/B/A/G/|"G"G d "Em"g > a|"G"b/a/g/f/ "D"a/g/f/e/ |"G"d B B :|

